svg/currency_fra.svg

<svg xmlns="http://www.w3.org/2000/svg" viewBox="0 0 24 24"><path d="M18 5V3H7v13H5v2h2v3h2v-3h4v-2H9v-3h8v-2H9V5z"/></svg>

<svg xmlns="http://www.w3.org/2000/svg" id="mdi-currency-fra" viewBox="0 0 24 24"><path d="M18 5V3H7V16H5V18H7V21H9V18H13V16H9V13H17V11H9V5H18Z" /></svg>
